_inc/images/systems/logos/cdi.svg

<svg viewBox="0 0 3840 519.3" xmlns="http://www.w3.org/2000/svg">
    <path class="st1" style="fill:#fff" d="M1677.1 6.8h162.3v484.1h-162.3zm2000.6 167.4H3840v316.7h-162.3zm0-167.4H3840v96.8h-162.3zM810.6 196.3c-109.2 0-197.7 28.4-197.7 63.3S701.4 323 810.6 323c109.2 0 197.7-28.4 197.7-63.3 0-35-88.5-63.4-197.7-63.4Zm0 112.3c-85.7 0-155.2-21.9-155.2-49s69.5-49 155.2-49c85.7 0 155.2 21.9 155.2 49s-69.5 49-155.2 49Z"/>
    <path class="st1" d="M1415.8 321.8c-82.9 80.5-322.5 138.7-605.2 138.7-351.5 0-636.4-89.9-636.4-200.8S459.1 58.8 810.6 58.8c282.8 0 522.3 58.2 605.2 138.7h182C1510.9 84.1 1191.4 0 810.6 0 362.9 0 0 116.2 0 259.6 0 403 362.9 519.3 810.6 519.3c380.8 0 700.3-84.1 787.2-197.5h-182Zm815.7-315h-412.7v54.8h412.7c351.5 0 636.4 83.8 636.4 187.2 0 103.4-284.9 187.3-636.4 187.3h-412.7v54.8h412.7c447.7 0 810.6-108.4 810.6-242.1s-362.9-242-810.6-242Zm900.4 173.4v137.3l407.7-68.7z" style="fill:#fff"/>
</svg>

<?xml version="1.0" encoding="utf-8"?>
<svg version="1.1" viewBox="0 0 3840 519.3" xmlns="http://www.w3.org/2000/svg">
  <rect x="1677.1" y="6.8" class="st1" width="162.3" height="484.1" style="fill: rgb(255, 255, 255);"/>
  <rect x="3677.7" y="174.2" class="st1" width="162.3" height="316.7" style="fill: rgb(255, 255, 255);"/>
  <rect x="3677.7" y="6.8" class="st1" width="162.3" height="96.8" style="fill: rgb(255, 255, 255);"/>
  <path class="st1" d="M 810.6 196.3 C 701.4 196.3 612.9 224.7 612.9 259.6 C 612.9 294.5 701.4 323 810.6 323 C 919.8 323 1008.3 294.6 1008.3 259.7 C 1008.3 224.7 919.8 196.3 810.6 196.3 Z M 810.6 308.6 C 724.9 308.6 655.4 286.7 655.4 259.6 C 655.4 232.5 724.9 210.6 810.6 210.6 C 896.3 210.6 965.8 232.5 965.8 259.6 C 965.8 286.7 896.3 308.6 810.6 308.6 Z" style="fill: rgb(255, 255, 255);"/>
  <path class="st1" d="M 1415.8 321.8 C 1332.9 402.3 1093.3 460.5 810.6 460.5 C 459.1 460.5 174.2 370.6 174.2 259.7 C 174.2 148.8 459.1 58.8 810.6 58.8 C 1093.4 58.8 1332.9 117 1415.8 197.5 L 1597.8 197.5 C 1510.9 84.1 1191.4 0 810.6 0 C 362.9 0 0 116.2 0 259.6 C 0 403 362.9 519.3 810.6 519.3 C 1191.4 519.3 1510.9 435.2 1597.8 321.8 L 1415.8 321.8 L 1415.8 321.8 Z" style="fill: rgb(255, 255, 255);"/>
  <path class="st1" d="M 2231.5 6.8 L 2231.5 6.8 L 1818.8 6.8 L 1818.8 61.6 L 2231.5 61.6 C 2583 61.6 2867.9 145.4 2867.9 248.8 C 2867.9 352.2 2583 436.1 2231.5 436.1 L 1818.8 436.1 L 1818.8 490.9 L 2231.5 490.9 L 2231.5 490.9 C 2679.2 490.9 3042.1 382.5 3042.1 248.8 C 3042.1 115.1 2679.2 6.8 2231.5 6.8 Z" style="fill: rgb(255, 255, 255);"/>
  <polygon class="st1" points="3131.9 180.2 3131.9 317.5 3539.6 248.8" style="fill: rgb(255, 255, 255);"/>
</svg>
